!!!COM: Palestrina, Giovanni Perluigi da
!!!OPR: Missa Tu es Petrus (1887)
!!!OTL: Agnus II
**kern	**kern	**kern	**kern	**kern	**kern
*Ibass	*Ibarit	*Itenor	*Icalto	*Icant	*Icant
!Bassus	!Baritone	!Tenor	!Altus	!Cantus 2	!Cantus 1
*clefF4	*clefF4	*clefGv2	*clefG2	*clefG2	*clefG2
*k[]	*k[]	*k[]	*k[]	*k[]	*k[]
*G:mix	*G:mix	*G:mix	*G:mix	*G:mix	*G:mix
*M4/2	*M4/2	*M4/2	*M4/2	*M4/2	*M4/2
=1	=1	=1	=1	=1	=1
1.G	1r	1.d	0r	0r	0r
.	[1G	.	.	.	.
2G	.	2d	.	.	.
=2	=2	=2	=2	=2	=2
0C	2G]	0e	0r	0r	0r
.	2G	.	.	.	.
.	1c	.	.	.	.
=3	=3	=3	=3	=3	=3
1G	1B	2d	0r	0r	0r
.	.	1d	.	.	.
1G	1B	.	.	.	.
.	.	[2e	.	.	.
=4	=4	=4	=4	=4	=4
1A	1c	2e]	0r	0r	0r
.	.	2c	.	.	.
2F#	2A	2c	.	.	.
2F#	2A	[2d	.	.	.
=5	=5	=5	=5	=5	=5
1G	1B	2d]	0r	0r	0r
.	.	2B	.	.	.
2E	2G	1c	.	.	.
[2F	[2A	.	.	.	.
=6	=6	=6	=6	=6	=6
2F]	2A]	2d	0r	0r	0r
2G	2B	2.e	.	.	.
1A	1c	.	.	.	.
.	.	4d	.	.	.
.	.	[2c	.	.	.
=7	=7	=7	=7	=7	=7
0G	0d	2c]	1.g	1.dd	1r
.	.	4B	.	.	.
.	.	4A	.	.	.
.	.	1B	.	.	[1g
.	.	.	2g	2dd	.
=8	=8	=8	=8	=8	=8
0r	0r	0r	0c	0ee	2g]
.	.	.	.	.	2g
.	.	.	.	.	1cc
=9	=9	=9	=9	=9	=9
0r	0r	0r	1g	2dd	1b
.	.	.	.	1dd	.
.	.	.	1g	.	1b
.	.	.	.	[2ee	.
=10	=10	=10	=10	=10	=10
0r	0r	0r	1a	2ee]	1cc
.	.	.	.	2cc	.
.	.	.	2f#	2cc	2a
.	.	.	2f#	[2dd	2a
=11	=11	=11	=11	=11	=11
0r	0r	0r	1g	2dd]	1b
.	.	.	.	2b	.
.	.	.	2e	1cc	2g
.	.	.	[2f	.	[2a
=12	=12	=12	=12	=12	=12
0r	0r	0r	2f]	2dd	2a]
.	.	.	2g	2.ee	2b
.	.	.	1a	.	1cc
.	.	.	.	4dd	.
.	.	.	.	[2cc	.
=13	=13	=13	=13	=13	=13
1.G	1r	1.d	[0g	2cc]	0dd
.	.	.	.	4b	.
.	.	.	.	4a	.
.	[1G	.	.	1b	.
2G	.	2d	.	.	.
=14	=14	=14	=14	=14	=14
0C	2G]	0e	0g]	1cc	1gg
.	2G	.	.	.	.
.	1c	.	.	1cc	2gg
.	.	.	.	.	4g
.	.	.	.	.	4a
=15	=15	=15	=15	=15	=15
1G	1B	2d	0g	1dd	4b
.	.	.	.	.	4a
.	.	1d	.	.	4b
.	.	.	.	.	4cc
1G	1B	.	.	1b	4dd
.	.	.	.	.	4cc
.	.	[2e	.	.	2b
=16	=16	=16	=16	=16	=16
1A	1c	2e]	2e	2r	0a
.	.	2c	1A	2ee	.
2F	2A	2c	.	1ff	.
2F	2A	[2d	2a	.	.
=17	=17	=17	=17	=17	=17
1G	1B	2d]	1.g	2dd	0r
.	.	2B	.	2dd	.
2E	2G	2.c	.	2ee	.
[2F	[2A	.	2f	2cc	.
.	.	4B	.	.	.
=18	=18	=18	=18	=18	=18
2F]	4A]	4c	2a	1cc	1r
.	4B	4d	.	.	.
2C	1c	2e	2g	.	.
1G	.	1d	1g	1dd	2r
.	2B	.	.	.	2dd
=19	=19	=19	=19	=19	=19
1C	1c	2g	2r	1cc	1ee
.	.	1e	2g	.	.
1r	1A	.	1a	1r	2cc
.	.	[2a	.	.	2cc
=20	=20	=20	=20	=20	=20
0r	1d	2a]	2f#	1r	1dd
.	.	1d	2f#	.	.
.	2G	.	1g	2r	1b
.	2G	[2g	.	2dd	.
=21	=21	=21	=21	=21	=21
0r	1.c	4g]	2.e	1ee	2.cc
.	.	4f	.	.	.
.	.	2g	.	.	.
.	.	.	4f	.	4dd
.	.	1e	1g	2cc	4ee
.	.	.	.	.	4ff
.	2e	.	.	2cc	[2gg
=22	=22	=22	=22	=22	=22
1r	1d	0r	1a	1dd	2gg]
.	.	.	.	.	2ff
2r	1G	.	2.g	1b	2ee
2G	.	.	.	.	2dd
.	.	.	4f	.	.
=23	=23	=23	=23	=23	=23
1A	0r	2r	4e	4cc	4cc
.	.	.	4d	4b	4dd
.	.	2e	4c	4a	4ee
.	.	.	4B	4g	4cc
2F	.	1f	1A	1a	2dd
2F	.	.	.	.	[2cc
=24	=24	=24	=24	=24	=24
1G	2r	1d	1r	2g	2cc]
.	2d	.	.	2g	2b
1C	1e	1c	1g	[1cc	1cc
=25	=25	=25	=25	=25	=25
2.F	2c	2A	1a	2cc]	2r
.	2c	2A	.	1a	2cc
4E	.	.	.	.	.
1D	1d	1a	2f	.	1ff
.	.	.	2f	[2dd	.
=26	=26	=26	=26	=26	=26
1G	1B	2g	1g	2dd]	2dd
.	.	2d	.	2g	2dd
2.C	1c	2.g	1e	2g	[1ee
.	.	.	.	[2gg	.
4D	.	4f	.	.	.
=27	=27	=27	=27	=27	=27
1E	1.G	4e	0g	4gg]	2ee]
.	.	4d	.	4ff	.
.	.	1e	.	4ee	2b
.	.	.	.	4dd	.
1C	.	.	.	1ee	1cc
.	2A	2c	.	.	.
=28	=28	=28	=28	=28	=28
0G	0B	1d	0g	1dd	1b
.	.	2d	.	2r	2r
.	.	[2g	.	[2dd	[2b
=29	=29	=29	=29	=29	=29
0r	0r	2g]	0r	2dd]	2b]
.	.	2g	.	2dd	2b
.	.	2c	.	2ee	2cc
.	.	2c	.	2ee	2cc
=30	=30	=30	=30	=30	=30
0r	0r	1g	2r	2dd	4b
.	.	.	.	.	4a
.	.	.	1g	4g	4b
.	.	.	.	4a	4cc
.	.	1G	.	4b	4dd
.	.	.	.	4cc	4ee
.	.	.	2g	4dd	[2dd
.	.	.	.	4ee	.
=31	=31	=31	=31	=31	=31
1r	0r	1r	2a	4ff	4dd]
.	.	.	.	4ee	4cc
.	.	.	2a	4ee	1cc
.	.	.	.	8dd	.
.	.	.	.	8cc	.
2r	.	2r	[1g	[1dd	.
[2G	.	[2d	.	.	4b
.	.	.	.	.	4a
=32	=32	=32	=32	=32	=32
2G]	1G	2d]	1g]	1dd]	1b
2G	.	2d	.	.	.
2C	2G	2e	1g	1r	2cc
2C	[2c	2e	.	.	[2g
=33	=33	=33	=33	=33	=33
1G	2c]	2.d	0r	0r	2g]
.	2B	.	.	.	2g
.	.	8c	.	.	.
.	.	8B	.	.	.
1F	2c	4A	.	.	2a
.	.	4B	.	.	.
.	2A	4c	.	.	2a
.	.	4d	.	.	.
=34	=34	=34	=34	=34	=34
1E	2B	4e	0r	0r	4g
.	.	4f	.	.	4a
.	2G	1g	.	.	4b
.	.	.	.	.	4cc
1D	1A	.	.	.	1dd
.	.	2f#	.	.	.
=35	=35	=35	=35	=35	=35
2C	1c	1g	2r	2r	2.ee
1c	.	.	1g	1ee	.
.	.	.	.	.	4dd
.	1r	1r	.	.	[1cc
2c	.	.	2g	2ee	.
=36	=36	=36	=36	=36	=36
2F	1r	1r	2a	2ff	1cc]
2F	.	.	2a	2ff	.
1c	2r	2r	1g	1ee	2r
.	[2c	[2g	.	.	[2ee
=37	=37	=37	=37	=37	=37
1C	2c]	2g]	1e	0cc	2ee]
.	2c	2g	.	.	2ee
1r	2F	2a	2r	.	2ff
.	2F	2a	[2c	.	2ff
=38	=38	=38	=38	=38	=38
0r	1.c	1g	2c]	2r	1ee
.	.	.	2e	1cc	.
.	.	2e	2g	.	1ee
.	2A	2c	2a	2cc	.
=39	=39	=39	=39	=39	=39
0r	1B-	2f	4d	2dd	0r
.	.	.	4e	.	.
.	.	2d	4f	2dd	.
.	.	.	4g	.	.
.	1A	2e	4a	4cc	.
.	.	.	4b	4dd	.
.	.	2c	[2cc	4ee	.
.	.	.	.	4ff	.
=40	=40	=40	=40	=40	=40
2r	1G	0d	2cc]	1gg	2r
1G	.	.	4b	.	1dd
.	.	.	4a	.	.
.	2r	.	1b	1gg	.
2G	[2G	.	.	.	2dd
=41	=41	=41	=41	=41	=41
2C	2G]	1c	2cc	2r	2ee
2C	2G	.	1g	1gg	2ee
1G	1B	1d	.	.	2.dd
.	.	.	2g	2gg	.
.	.	.	.	.	8cc
.	.	.	.	.	8b
=42	=42	=42	=42	=42	=42
2.F	2c	1f	2.a	1.cc	4a
.	.	.	.	.	4b
.	1c	.	.	.	4cc
8E	.	.	8g	.	4dd
8D	.	.	8f	.	.
1C	.	2g	2e	.	4ee
.	.	.	.	.	4ff
.	2B	2G	2e	2ee	[2gg
=43	=43	=43	=43	=43	=43
0D	0A	1d	0a	1dd	2gg]
.	.	.	.	.	4ff
.	.	.	.	.	4ee
.	.	2r	.	2dd	4ff
.	.	.	.	.	4ee
.	.	[2d	.	2dd	4dd
.	.	.	.	.	4cc
=44	=44	=44	=44	=44	=44
2.G	[0G	2d]	1d	2dd	4b
.	.	.	.	.	4cc
.	.	2B	.	4gg	4dd
4G	.	.	.	4ff	4b
2C	.	1e	2.g	4ee	1cc
.	.	.	.	4dd	.
2C	.	.	.	[2cc	.
.	.	.	4g	.	.
=45	=45	=45	=45	=45	=45
1G	1G_	1d	2g	2cc]	1dd
.	.	.	2g	2b	.
1C	1G_	1c	1g	1cc	1ee
=46	=46	=46	=46	=46	=46
0G	0G]	0d	0g	0b	0dd
==	==	==	==	==	==
*-	*-	*-	*-	*-	*-
!!!CDT: 1525/^1526/-1594/2/2
!!!OCY: Italia
!!!AGN: Mass (Parody)
!!!AST: renaissance, vocal
!!!ASW: Motet 1572 (Palestrina)
!!!PWK: Masses, Book 11
!!!RNB: Cadence finals: C,D
!!!YOR: Le Opere Complete, v. 28, p. 268
!!!YOO: Rome, Italy: Fratelli Scalera
!!!END: 1992//
!!!EED: John Miller
!!!YEC: Copyright 2000, John Miller
!!!YEN: United States of America
!!!YEM: Rights to all derivative electronic formats reserved.
!!!YEM: Refer to licensing agreement for further details.
!!!YEM: This file must be accompanied by the licensing agreement.
!!!YEM: A copy of the licensing agreement may be found at http://www.music-cog.ohio-state.edu/HumdrumDatabases/Palestrina/license.txt
!!!EMD: converted to Humdrum by Bret Aarden
